X: 25794
T: Mason's Apron, The
R: reel
M: 4/4
K: Gmajor
ge|:dBAD ~G3E|DEGA BG ~G2|Az BG AGEG|~G2Bd edge|
dBAD ~G3E|DEGA BG~G2|c3d ez ge|1 dBAB ~g3e:|2 dBAB GEDE||
~G2dG eGdG|~G2dG GEDE|~A3e gz ed|cdeg gedB|
~G2dG eGdG|~G2dG GEDE|~c3d ez ge|1 dBAB GEDE:|2 dBAB ~g3e||

